src/assets/curso/temas/tema1/img_12.svg

<svg height="56.142" viewBox="0 0 85 56.142" width="85" xmlns="http://www.w3.org/2000/svg"><g transform="translate(0 -86.915)"><path d="m1.328 141.728v-15.237h82.344v15.239zm82.344-53.485v15.239h-82.344v-15.239zm-82.344 16.567h82.344v20.353h-82.344zm83.008-17.895h-83.672a.664.664 0 0 0 -.664.664v54.813a.664.664 0 0 0 .664.664h83.672a.664.664 0 0 0 .664-.664v-54.813a.664.664 0 0 0 -.664-.664zm-49.1 33.7h14.526l-1.317-2.348h-11.89zm7.261 2.395a6.89 6.89 0 0 0 3.7-1.067h-7.397a6.894 6.894 0 0 0 3.7 1.067zm-6.968-6.966a7.048 7.048 0 0 0 .1 1.155l4.271-7.622a6.989 6.989 0 0 0 -4.368 6.465zm6.968-8.385-3.141 5.6h6.282zm6.968 8.382a6.939 6.939 0 0 0 -4.371-6.465l4.27 7.619a7.033 7.033 0 0 0 .1-1.154zm-10.852-1.451-1.313 2.347h10.4l-1.316-2.349zm12.858 6.365-1.177-2.1a8.272 8.272 0 0 0 -6.128-10.937l-1.089-1.942a.665.665 0 0 0 -1.159 0l-1.087 1.942a8.291 8.291 0 0 0 -6.131 10.942l-1.172 2.093a.664.664 0 0 0 .579.988h2.57a8.269 8.269 0 0 0 11.641 0h2.577a.664.664 0 0 0 .579-.988z" fill="#282828" fill-rule="evenodd"/><path d="m8 94.915h82.344v15.239h-82.344z" fill="#338af3" transform="translate(-6.672 -6.672)"/><path d="m90.344 194.7h-82.344v20.353h82.344zm-50.144 16.148 1.172-2.093a8.291 8.291 0 0 1 6.134-10.944l1.087-1.942a.665.665 0 0 1 1.159 0l1.089 1.942a8.272 8.272 0 0 1 6.128 10.937l1.177 2.1a.664.664 0 0 1 -.579.988h-2.578a8.269 8.269 0 0 1 -11.641 0h-2.57a.664.664 0 0 1 -.579-.988z" fill="#f0f0f0" fill-rule="evenodd" transform="translate(-6.672 -89.895)"/><path d="m8 325.3h82.344v15.239h-82.344z" fill="#338af3" transform="translate(-6.672 -198.805)"/><g fill-rule="evenodd"><path d="m237.394 298.963a6.89 6.89 0 0 0 3.7-1.067h-7.404a6.894 6.894 0 0 0 3.704 1.067z" fill="#ffda44" transform="translate(-194.893 -175.955)"/><path d="m214.125 231.037 4.271-7.622a6.956 6.956 0 0 0 -4.271 7.622z" fill="#ffda44" transform="translate(-178.494 -113.839)"/><path d="m240.223 211.856-3.141 5.6h6.282z" fill="#338af3" transform="translate(-197.722 -104.199)"/><path d="m233.757 253.605h-7.77l-1.317 2.349h10.4z" fill="#6da544" transform="translate(-187.372 -139.017)"/><path d="m271.642 223.4 4.27 7.619a7.033 7.033 0 0 0 .1-1.154 6.939 6.939 0 0 0 -4.371-6.465z" fill="#ffda44" transform="translate(-226.545 -113.831)"/><path d="m225.468 275.754h-11.89l-1.316 2.348h14.523z" fill="#0052b4" transform="translate(-177.022 -157.489)"/></g></g></svg>

<svg xmlns="http://www.w3.org/2000/svg" width="85" height="56.142" viewBox="0 0 85 56.142"><g transform="translate(0 -86.915)"><path d="M1.328,141.728V126.491H83.672v15.239ZM83.672,88.243v15.239H1.328V88.243ZM1.328,104.81H83.672v20.353H1.328ZM84.336,86.915H.664A.664.664,0,0,0,0,87.579v54.813a.664.664,0,0,0,.664.664H84.336a.664.664,0,0,0,.664-.664V87.579A.664.664,0,0,0,84.336,86.915Zm-49.1,33.7H49.762l-1.317-2.348H36.555Zm7.261,2.395a6.89,6.89,0,0,0,3.7-1.067H38.8a6.894,6.894,0,0,0,3.7,1.067Zm-6.968-6.966a7.048,7.048,0,0,0,.1,1.155l4.271-7.622A6.989,6.989,0,0,0,35.532,116.042Zm6.968-8.385-3.141,5.6h6.282Zm6.968,8.382a6.939,6.939,0,0,0-4.371-6.465l4.27,7.619a7.033,7.033,0,0,0,.1-1.154Zm-10.852-1.451L37.3,116.937H47.7l-1.316-2.349Zm12.858,6.365-1.177-2.1a8.272,8.272,0,0,0-6.128-10.937l-1.089-1.942a.665.665,0,0,0-1.159,0l-1.087,1.942A8.291,8.291,0,0,0,34.7,118.86l-1.172,2.093a.664.664,0,0,0,.579.988h2.57a8.269,8.269,0,0,0,11.641,0h2.577a.664.664,0,0,0,.579-.988Z" transform="translate(0)" fill="#282828" fill-rule="evenodd"/><path d="M8,94.915H90.344v15.239H8Z" transform="translate(-6.672 -6.672)" fill="#338af3"/><path d="M90.344,194.7H8v20.353H90.344ZM40.2,210.848l1.172-2.093a8.291,8.291,0,0,1,6.134-10.944l1.087-1.942a.665.665,0,0,1,1.159,0l1.089,1.942a8.272,8.272,0,0,1,6.128,10.937l1.177,2.1a.664.664,0,0,1-.579.988H54.989a8.269,8.269,0,0,1-11.641,0h-2.57a.664.664,0,0,1-.579-.988Z" transform="translate(-6.672 -89.895)" fill="#f0f0f0" fill-rule="evenodd"/><path d="M8,325.3H90.344v15.239H8Z" transform="translate(-6.672 -198.805)" fill="#338af3"/><g transform="translate(35.239 107.657)"><path d="M237.394,298.963a6.89,6.89,0,0,0,3.7-1.067H233.69A6.894,6.894,0,0,0,237.394,298.963Z" transform="translate(-230.132 -283.612)" fill="#ffda44" fill-rule="evenodd"/><path d="M214.125,231.037l4.271-7.622A6.956,6.956,0,0,0,214.125,231.037Z" transform="translate(-213.733 -221.496)" fill="#ffda44" fill-rule="evenodd"/><path d="M240.223,211.856l-3.141,5.6h6.282Z" transform="translate(-232.961 -211.856)" fill="#338af3" fill-rule="evenodd"/><path d="M233.757,253.605h-7.77l-1.317,2.349h10.4Z" transform="translate(-222.611 -246.674)" fill="#6da544" fill-rule="evenodd"/><path d="M271.642,223.4l4.27,7.619a7.033,7.033,0,0,0,.1-1.154,6.939,6.939,0,0,0-4.371-6.465Z" transform="translate(-261.784 -221.488)" fill="#ffda44" fill-rule="evenodd"/><path d="M225.468,275.754h-11.89l-1.316,2.348h14.523Z" transform="translate(-212.261 -265.146)" fill="#0052b4" fill-rule="evenodd"/></g></g></svg>
